public/runnable-badge.svg

<svg fill="none" height="2120" viewBox="0 0 2501 2120" width="2501" xmlns="http://www.w3.org/2000/svg"><path d="m2285.55 102.191-2016.362-101.409447c-149.14-5.966403-268.44862 95.442847-268.44862 226.684447v95.452l2499.57062 77.554v-77.554c5.96-119.308-89.49-214.761-214.76-220.727zm-1968.64 95.452c0 17.9-17.89 41.756-41.755 41.756h-77.554c-17.899 0-41.755-17.9-41.755-41.756v-71.587c0-17.899 17.89-41.7644 41.755-41.7644h77.554c17.899 0 41.755 17.8994 41.755 41.7644v71.578zm268.459 5.957c0 17.899-17.9 41.765-41.765 29.832h-71.578c-17.909 0-41.764-17.889-41.764-41.755v-71.587c0-17.899 17.899-41.755 41.755-29.832h77.553c17.899 0 41.755 17.899 41.755 41.765v71.577zm256.516 5.976c0 17.89-17.9 41.755-41.765 29.823h-77.544c-17.899 0-41.765-17.9-41.765-41.756v-71.587c0-17.899 17.9-41.7644 41.765-29.8316h77.544c17.899 0 41.765 17.8996 41.765 41.7646v71.578zm-841.14562 1682.284c0 131.24 125.28462 226.69 268.44862 226.69l2016.362-101.42c119.31-5.95 214.76-101.41 214.76-220.72v-1306.462l-2499.57062-77.543zm1121.53062-942.557c-47.73-47.722-47.73-119.309 0-167.04 47.72-47.722 125.27-41.755 172.99 0l340.04 316.177c47.73 41.76 47.73 119.31 0 149.14l-340.04 322.14c-47.72 47.72-125.27 47.72-172.99 0-47.73-41.75-47.73-119.31 0-167.04l256.52-238.62c0 23.86-256.52-214.757-256.52-214.757z" fill="#fff"/></svg>

<svg width="2501" height="2120" viewBox="0 0 2501 2120" fill="none" xmlns="http://www.w3.org/2000/svg">
<path d="M2285.55 102.191L269.188 0.781553C120.048 -5.18485 0.73938 96.2244 0.73938 227.466V322.918L2500.31 400.472V322.918C2506.27 203.61 2410.82 108.157 2285.55 102.191V102.191ZM316.91 197.643C316.91 215.543 299.02 239.399 275.155 239.399H197.601C179.702 239.399 155.846 221.499 155.846 197.643V126.056C155.846 108.157 173.736 84.2916 197.601 84.2916H275.155C293.054 84.2916 316.91 102.191 316.91 126.056V197.634V197.643ZM585.369 203.6C585.369 221.499 567.469 245.365 543.604 233.432H472.026C454.117 233.432 430.262 215.543 430.262 191.677V120.09C430.262 102.191 448.161 78.335 472.017 90.258H549.57C567.469 90.258 591.325 108.157 591.325 132.023V203.6H585.369ZM841.885 209.576C841.885 227.466 823.985 251.331 800.12 239.399H722.576C704.677 239.399 680.811 221.499 680.811 197.643V126.056C680.811 108.157 698.711 84.2916 722.576 96.2244H800.12C818.019 96.2244 841.885 114.124 841.885 137.989V209.567V209.576ZM0.73938 1891.86C0.73938 2023.1 126.024 2118.55 269.188 2118.55L2285.55 2017.13C2404.86 2011.18 2500.31 1915.72 2500.31 1796.41V489.948L0.73938 412.405V1891.86ZM1122.27 949.303C1074.54 901.581 1074.54 829.994 1122.27 782.263C1169.99 734.541 1247.54 740.508 1295.26 782.263L1635.3 1098.44C1683.03 1140.2 1683.03 1217.75 1635.3 1247.58L1295.26 1569.72C1247.54 1617.44 1169.99 1617.44 1122.27 1569.72C1074.54 1527.97 1074.54 1450.41 1122.27 1402.68L1378.79 1164.06C1378.79 1187.92 1122.27 949.303 1122.27 949.303V949.303Z" fill="#fff"/>
</svg>
